X: 1
T: Farewell To Castlehyde
M: 3/4
L: 1/8
R: waltz
K: Dmaj
FE | D2 F2 F2 | F2 A2 A2 | G2 A2 G2 | F2 A2 GG |
F2 D2 D2 | F2 A2 G2 | E2 D2 D2 | D2 D2 FE |
D2 F2 F2 | F2 A2 A2 | G2 A2 G2 | F2 A2 z2{A}{G} |
F2 D2 D2 | F{F}F A2 GE | E2 D2 D2 | D2 D2 z ||
z{D} | D2 _c2 B2 | d2 e2 d2 | =c2 A2 GE | F2 z2 z2{D} |
D2 _c2 B2 | d2 ed =c2 | A2 B2 c2 | d2 z2 ed |
c2 A2 A2 | F2 A2 A2 | G2 B2 G2 | F2 A2 AG |
F2 D2 D2 | F2 A2 G2 | E2 D2 D2 | F2 A2 AG |
F2 D2 D2 | F2 A2 G2 | E2 D2 D2 | D2 D2 ||
